X: 10761
T: REST! WARRIOR, REST!
C: Michael Kelly
Q: "Slow with feeling."
%R: air, jig, march
B: W. Hamilton "Universal Tune-Book" Vol. 1 Glasgow 1844 p.76 #1
S: http://imslp.org/wiki/Hamilton's_Universal_Tune-Book_(Various)
Z: 2016 John Chambers <jc:trillian.mit.edu>
M: 6/8
L: 1/8
K: D
% - - - - - - - - - - - - - - - - - - - - - - - - -
d |\
f>ed dAd | f>ed d2d | f>gf f2e/d/ | egf e2A |\
f>ed dAd | f>ed d2(d/e/) | ffe ggf | e>de d2z |\
"_>"e3 "_>"f3 | g>ag gfe |
f>gf fef | gag fed |\
eaa a2d/e/ | f>gf fed | f>gf fde | ffa a>gf |\
ede d2z | "^ad lib."d3 A2A | d2z z2z | f3 (ed)e |\
d3- d2 |]
% - - - - - - - - - - - - - - - - - - - - - - - - -

%%sep 1 1 500
%%sep 1 1 500

